X:1
T:Con el Vino y con el Pan - Intro
T:Con el Vino y con el Pan - Intro
T:Misa - Ofertorio
%%score 1 { 2 | 3 } 4 5
L:1/8
Q:1/4=80
M:6/8
K:D
V:1 tab stafflines=6 strings=E2,A2,D3,G3,B3,E4 nm="Classical Guitar" snm="Guit."
V:2 treble nm="Piano" snm="Pno."
V:3 bass 
V:4 treble nm="Flute" snm="Fl."
V:5 treble transpose=-9 nm="Altsaxophon" snm="A.sax."
V:1
"Bm"!mf! !5!B,,>!mp![!5!B,,!4!F,!3!B,!2!D!1!F][!5!B,,!4!F,!3!B,!2!D!1!F]/[!5!B,,!4!F,!3!B,!2!D!1!F]/!mf! [!5!B,,!4!F,!3!B,!2!C!1!F]>!mp![!5!B,,!4!F,!3!B,!2!C!1!F][!5!B,,!4!F,!3!B,!2!C!1!F]/[!5!B,,!4!F,!3!B,!2!C!1!F]/ | %1
"A"!mf! !5!A,,>!mp![!5!A,,!4!E,!3!A,!2!C!1!E][!5!A,,!4!E,!3!A,!2!C!1!E]/[!5!A,,!4!E,!3!A,!2!C!1!E]/!mf! [!5!A,,!4!E,!3!A,!2!B,!1!E]!mp![!5!A,,!4!E,!3!A,!2!B,!1!E]/[!5!A,,!4!E,!3!A,!2!B,!1!E]/[!5!A,,!4!E,!3!A,!2!B,!1!E]/[!5!A,,!4!E,!3!A,!2!B,!1!E]/ | %2
"Bm"!mf! !5!B,,>!mp![!5!B,,!4!F,!3!B,!2!D!1!F][!5!B,,!4!F,!3!B,!2!D!1!F]/[!5!B,,!4!F,!3!B,!2!D!1!F]/!mf! [!5!B,,!4!F,!3!B,!2!C!1!F]>!mp![!5!B,,!4!F,!3!B,!2!C!1!F][!5!B,,!4!F,!3!B,!2!C!1!F]/[!5!B,,!4!F,!3!B,!2!C!1!F]/ | %3
"A"!mf! !5!A,,>!mp![!5!A,,!4!E,!3!A,!2!C!1!E][!5!A,,!4!E,!3!A,!2!C!1!E]/[!5!A,,!4!E,!3!A,!2!C!1!E]/!mf! [!5!A,,!4!E,!3!A,!2!D!1!E]3/2[!5!A,,!4!E,!3!A,!2!C!1!E]3/2 | %4
"Bm"!mf! !5!B,,>!mp![!5!B,,!4!F,!3!B,!2!D!1!F][!5!B,,!4!F,!3!B,!2!D!1!F]/[!5!B,,!4!F,!3!B,!2!D!1!F]/!mf! [!5!B,,!4!F,!3!B,!2!C!1!F]>!mp![!5!B,,!4!F,!3!B,!2!C!1!F][!5!B,,!4!F,!3!B,!2!C!1!F]/[!5!B,,!4!F,!3!B,!2!C!1!F]/ | %5
"A"!mf! !5!A,,>!mp![!5!A,,!4!E,!3!A,!2!C!1!E][!5!A,,!4!E,!3!A,!2!C!1!E]/[!5!A,,!4!E,!3!A,!2!C!1!E]/!mf! [!5!A,,!4!E,!3!A,!2!B,!1!E]!mp![!5!A,,!4!E,!3!A,!2!B,!1!E]/[!5!A,,!4!E,!3!A,!2!B,!1!E]/[!5!A,,!4!E,!3!A,!2!B,!1!E]/[!5!A,,!4!E,!3!A,!2!B,!1!E]/ | %6
"Bm"!mf! !5!B,,>!mp![!5!B,,!4!F,!3!B,!2!D!1!F][!5!B,,!4!F,!3!B,!2!D!1!F]/[!5!B,,!4!F,!3!B,!2!D!1!F]/!mf! [!5!B,,!4!F,!3!B,!2!C!1!F]>!mp![!5!B,,!4!F,!3!B,!2!C!1!F][!5!B,,!4!F,!3!B,!2!C!1!F]/[!5!B,,!4!F,!3!B,!2!C!1!F]/ | %7
"A"!mf! !5!A,,>!mp![!5!A,,!4!E,!3!A,!2!C!1!E][!5!A,,!4!E,!3!A,!2!C!1!E]/[!5!A,,!4!E,!3!A,!2!C!1!E]/!mf! [!5!A,,!4!E,!3!A,!2!B,!1!E]!mp![!5!A,,!4!E,!3!A,!2!B,!1!E]/[!5!A,,!4!E,!3!A,!2!B,!1!E]/[!5!A,,!4!E,!3!A,!2!B,!1!E]/[!5!A,,!4!E,!3!A,!2!B,!1!E]/ | %8
"Bm"!mf! !5!B,,>!mp![!5!B,,!4!F,!3!B,!2!D!1!F][!5!B,,!4!F,!3!B,!2!D!1!F]/[!5!B,,!4!F,!3!B,!2!D!1!F]/!mf!"^Con nuestras..." [!5!B,,!4!F,!3!B,!2!C!1!F]>!mp![!5!B,,!4!F,!3!B,!2!C!1!F][!5!B,,!4!F,!3!B,!2!C!1!F]/[!5!B,,!4!F,!3!B,!2!C!1!F]/ |] %9
V:2
 B>dB f3/2d3/2 | c3/2e3/2{/c} d3/2c3/2 | B>dB f3/2d3/2 | c3/2e3/2{/c} d3/2c3/2 | B>dB f3/2d3/2 | %5
 c3/2e3/2{/c} d3/2c3/2 | B>dB f3/2d3/2 | c3/2e3/2{/c} d3/2c3/2 | B>dB f3/2d3/2 |] %9
V:3
 [F,B,D]3 [F,B,C]3 | [E,A,C]3 [E,A,B,]3/2[E,A,C]3/2 | [F,B,D]3 [F,B,C]3 | %3
 [E,A,C]3 [E,A,B,]3/2[E,A,C]3/2 | [F,B,D]3 [F,B,C]3 | [E,A,C]3 [E,A,B,]3/2[E,A,C]3/2 | %6
 [F,B,D]3 [F,B,C]3 | [E,A,C]3 [E,A,B,]3/2[E,A,C]3/2 | [F,B,D]3 [F,B,C]3 |] %9
V:4
 z3 f3 | e2 d2 ce | f/d/ B4 z | z2 z4 | z3 B3 | c2 d2 BA | B4 cf | e3/2d3/2 B3/2A3/2 | B6 |] %9
V:5
[K:B] z3 d3 | c2 B2 Ac | d/B/ G4 z | z2 z4 | z3 G3 | A2 B2 GF | G4 Bd | c3/2B3/2 G3/2F3/2 | G6 |] %9

